X: 5
T: The Atholl Highlanders
R: jig
M: 6/8
L: 1/8
K: Amaj
e3 ecA|ecA Bcd|e3 ecA|Bcd cBA|
e3 ecA|ecA Bcd|eae fed|1cdB Acd:|2cdB A3|
|:Ace Ace|Adf Adf|Ace Ace|Bcd c2B|
Ace Ace|Adf Adf|eae fed|1cdB A3:|2cdB Ace|
|:gae edc|gae edc|gae edc|Bcd efg|
gae edc|gae edc|eae fed|1cdB Ace:|2cdB A3|
|:ece ece|fdf fdf|ece ece|dBd dBd|
ece ece|fdf fdf|eae fed|cdB A3:||


Tune 107	Setting 26139

